!!!OTL: ES GIENG EIN MAEDCHEN GRASEN
!!!ARE: Europa, Mitteleuropa, Deutschland, Frankfurt a.M., Darmstadt
!!!SCT: E0071B
!!!YEM: Copyright 1995, estate of Helmut Schaffrath.
**kern
*ICvox
*Ivox
*M2/4
*k[f#]
*G:
{8d
=1
8g
8b
8b
8dd
=2
8g
8b
8b}
{8dd
=3
8dd
8cc
8cc
8b
=4
4b
8a}
{16g
16b
=5
8dd
8ee
8dd
16cc
16a
=6
8g
8b
8b}
{16b
16b
=7
8b
16a
16a
8a
16cc
16cc
=8
8ee
8dd
8dd}
{16g
16b
=9
8dd
8ee
8dd
16cc
16a
=10
8g
8b
8b}
{8b
=11
8a
8a
8dd
16dd
16cc
=12
4.b}
==
!!!AGN: erzaehlendes Volks - Lied, Sage, Liebe, Ballade ?
!!!ONB: ESAC (Essen Associative Code) Database: ERK1
!!!AMT: simple duple
!!!AIN: vox
!!!EED: Helmut Schaffrath
!!!EEV: 1.0
*-
